img/footer/inst.svg

<svg width="25" height="25" viewBox="0 0 25 25" fill="none" xmlns="http://www.w3.org/2000/svg">
<g clip-path="url(#clip0)">
<path d="M12.5042 6.08105C8.95939 6.08105 6.0896 8.95397 6.0896 12.4956C6.0896 16.0404 8.96252 18.9102 12.5042 18.9102C16.049 18.9102 18.9188 16.0373 18.9188 12.4956C18.9188 8.95085 16.0458 6.08105 12.5042 6.08105ZM12.5042 16.6592C10.2031 16.6592 8.34064 14.7956 8.34064 12.4956C8.34064 10.1956 10.2042 8.3321 12.5042 8.3321C14.8042 8.3321 16.6677 10.1956 16.6677 12.4956C16.6688 14.7956 14.8052 16.6592 12.5042 16.6592Z" fill="white"/>
<path d="M17.6539 0.0795043C15.3539 -0.0277873 9.65704 -0.022579 7.35496 0.0795043C5.33204 0.174296 3.54767 0.662838 2.10912 2.10138C-0.295043 4.50555 0.0122485 7.74513 0.0122485 12.4962C0.0122485 17.3587 -0.258585 20.5233 2.10912 22.891C4.52267 25.3035 7.80912 24.9878 12.5039 24.9878C17.3206 24.9878 18.9831 24.991 20.6862 24.3316C23.0018 23.4326 24.7498 21.3628 24.9206 17.6451C25.0289 15.3441 25.0227 9.64826 24.9206 7.34617C24.7143 2.95763 22.3591 0.296171 17.6539 0.0795043ZM21.2945 21.3003C19.7185 22.8764 17.532 22.7358 12.4737 22.7358C7.26537 22.7358 5.17683 22.8128 3.65287 21.2847C1.89767 19.5378 2.21537 16.7326 2.21537 12.4795C2.21537 6.7243 1.62475 2.5795 7.40079 2.28367C8.72787 2.2368 9.1185 2.22117 12.4591 2.22117L12.506 2.25242C18.057 2.25242 22.4123 1.67117 22.6737 7.44617C22.7331 8.76388 22.7466 9.15971 22.7466 12.4951C22.7456 17.643 22.8435 19.7441 21.2945 21.3003Z" fill="white"/>
<path d="M19.173 7.32702C20.0009 7.32702 20.672 6.65591 20.672 5.82806C20.672 5.00021 20.0009 4.3291 19.173 4.3291C18.3452 4.3291 17.6741 5.00021 17.6741 5.82806C17.6741 6.65591 18.3452 7.32702 19.173 7.32702Z" fill="white"/>
</g>
<defs>
<clipPath id="clip0">
<rect width="25" height="25" fill="white"/>
</clipPath>
</defs>
</svg>

<svg width="25" height="25" fill="none" xmlns="http://www.w3.org/2000/svg"><g clip-path="url(#prefix__a)" fill="#fff"><path d="M12.504 6.081a6.414 6.414 0 0 0-6.414 6.415 6.414 6.414 0 0 0 6.414 6.414 6.414 6.414 0 0 0 6.415-6.414 6.414 6.414 0 0 0-6.415-6.415zm0 10.578a4.162 4.162 0 0 1-4.163-4.163 4.163 4.163 0 1 1 8.327 0 4.162 4.162 0 0 1-4.164 4.163z"/><path d="M17.654.08c-2.3-.108-7.997-.103-10.299 0C5.332.174 3.548.663 2.109 2.1-.295 4.506.012 7.745.012 12.496c0 4.863-.27 8.027 2.097 10.395 2.414 2.413 5.7 2.097 10.395 2.097 4.817 0 6.48.003 8.182-.656 2.316-.9 4.064-2.97 4.235-6.687.108-2.3.102-7.997 0-10.299-.207-4.388-2.562-7.05-7.267-7.266zm3.64 21.22c-1.576 1.576-3.762 1.436-8.82 1.436-5.209 0-7.297.077-8.821-1.451-1.755-1.747-1.438-4.552-1.438-8.806 0-5.755-.59-9.9 5.186-10.195 1.327-.047 1.717-.063 5.058-.063l.047.031c5.551 0 9.906-.58 10.168 5.194.06 1.318.073 1.714.073 5.05-.001 5.147.096 7.248-1.453 8.804z"/><path d="M19.173 7.327a1.499 1.499 0 1 0 0-2.998 1.499 1.499 0 0 0 0 2.998z"/></g><defs><clipPath id="prefix__a"><path fill="#fff" d="M0 0h25v25H0z"/></clipPath></defs></svg>
